X:1
T:Did sweeter sounds adorn my flowing tongue
T:Did sweeter sounds adorn my flowing tongue (William Mather)
C:William Mather
Z:p29, Sacred Music,
Z:London: [1807].
%%score [ 1 2 3 4 ]
L:1/8
M:2/2
K:E
V:1 treble nm="Soprano" snm="S."
V:2 treble nm="Alto" snm="A."
V:3 treble-8 transpose=-12 nm="Tenor" snm="T."
V:4 bass nm="Bass" snm="B."
V:1
 E2 | B4 (B3 A) | G6 B2 | c2 B2 c2 d2 | e6 B2 | e4 =d4 | c2 B2 A2 =d2 | c4 B4 | A8 | G4 B2 G2 | %10
w: Or|had I _|faith like|that which Is- rael|saw When|Mo- ses|gave them mi- ra-|cles and|law;|Yet, gra- cious|
w: Did|swee- ter _|sounds a-|dorn my flow- ing|tongue Than|ev- er|man pro- nounc’d, or|an- gels|sung;|Had I all|
w: And|had I _|pow’r to|give that know- ledge|birth, In|all the|speech- es of the|babb- ling|earth;|Did Sha- drach’s|
 A4 c4 | B2 e2 A2 G2 | F6 G2 | A4 (B2 A2) | G2 c2 B2 (AG) | (G4 F3) E | E8 |] %17
w: cha- ri-|ty, in- dul- gent|guest, Were|not thy _|pow’r ex- er- ted _|in _ my|breast,|
w: know- ledge,|hu- man and di-|vine, That|thought can _|reach, or sci- ence _|can _ de-|fine;|
w: zeal my|glow- ing breast in-|spire To|wea- ry _|tor- tures, and re- *|joice _ in|fire;|
V:2
 B,2 | G4 F4 | E6 E2 | E2 E2 A2 F2 | G6 G2 | G4 (A2 E2) | E2 =D2 C2 F2 | E4 E4 | [CE]8 | E4 E2 E2 | %10
w: Or|had I|faith like|that which Is- rael|saw When|Mo- ses _|gave them mi- ra-|cles and|law;|Yet, gra- cious|
w: Did|swee- ter|sounds a-|dorn my flow- ing|tongue Than|ev- er _|man pro- nounc’d, or|an- gels|sung;|Had I all|
w: And|had I|pow’r to|give that know- ledge|birth, In|all the _|speech- es of the|babb- ling|earth;|Did Sha- drach’s|
 E4 E4 | E2 E2 D2 E2 | D6 E2 | E4 F4 | E2 E2 E2 E2 | (E4 D3) E | E8 |] %17
w: cha- ri-|ty, in- dul- gent|guest, Were|not thy|pow’r ex- er- ted|in _ my|breast,|
w: know- ledge,|hu- man and di-|vine, That|thought can|reach, or sci- ence|can _ de-|fine;|
w: zeal my|glow- ing breast in-|spire To|wea- ry|tor- tures, and re-|joice _ in|fire;|
V:3
 G2 | B4 B4 | B6 e2 | e2 B2 A2 B2 | B6 B2 | B4 (A2 B2) | A2 G2 A2 A2 | A4 G4 | A8 | B4 B2 B2 | %10
w: Or|had I|faith like|that which Is- rael|saw When|Mo- ses _|gave them mi- ra-|cles and|law;|Yet, gra- cious|
w: Did|swee- ter|sounds a-|dorn my flow- ing|tongue Than|ev- er _|man pro- nounc’d, or|an- gels|sung;|Had I all|
w: And|had I|pow’r to|give that know- ledge|birth, In|all the _|speech- es of the|babb- ling|earth;|Did Sha- drach’s|
 c4 A4 | B2 B2 A2 B2 | B6 B2 | c4 B4 | B2 c2 e2 B2 | B6 B2 | [GB]8 |] %17
w: cha- ri-|ty, in- dul- gent|guest, Were|not thy|pow’r ex- er- ted|in my|breast,|
w: know- ledge,|hu- man and di-|vine, That|thought can|reach, or sci- ence|can de-|fine;|
w: zeal my|glow- ing breast in-|spire To|wea- ry|tor- tures, and re-|joice in|fire;|
V:4
 E,2 | E,4 D,4 | E,6 G,2 | A,2 G,2 F,2 B,,2 | E,6 E,2 | E,4 (F,2 G,2) | A,2 E,2 F,2 =D,2 | %7
w: Or|had I|faith like|that which Is- rael|saw When|Mo- ses _|gave them mi- ra-|
w: Did|swee- ter|sounds a-|dorn my flow- ing|tongue Than|ev- er _|man pro- nounc’d, or|
w: And|had I|pow’r to|give that know- ledge|birth, In|all the _|speech- es of the|
 E,4 E,4 | A,,8 | E,4 G,2 E,2 | C,4 A,4 | %11
w: cles and|law;|Yet, gra- cious|cha- ri-|
w: an- gels|sung;|Had I all|know- ledge,|
w: babb- ling|earth;|Did Sha- drach’s|zeal my|
"^Notes:The parts are identified in the source as Treble - Counter - Tenor - Bass - Organ or Piano Forte. The Counter and Tenorparts are given in the alto and tenor clefs respectively. The keyboard accompaniment part, which is given in full in thesource as well as having bass figuring, doubles the voices, and has been omitted from this edition. The first verse only ofthe text is underlaid in the original, with the other four verses printed after the music: the word ‘form’ in the last line of thefourth verse is printed in the source as ‘from’. The A in the treble part on beat 2 of bar 13 is printed in the source as a smallgrace note and has been editorially expanded." G,2 G,2 F,2 E,2 | %12
w: ty, in- dul- gent|
w: hu- man and di-|
w: glow- ing breast in-|
 B,,6 E,2 | C,4 D,4 | E,2 A,2 G,2 E,2 | B,,6 B,,2 | E,8 |] %17
w: guest, Were|not thy|pow’r ex- er- ted|in my|breast,|
w: vine, That|thought can|reach, or sci- ence|can de-|fine;|
w: spire To|wea- ry|tor- tures, and re-|joice in|fire;|

